X:21
T: Barna kislány nyoszolyája
O: Kistelek (Csongrád), Özv. Mucsi Istvánné - Virág Julianna (83), 1952.05
Q: "Tempo guisto" 1/4=100
M:4/4
L:1/4
K:F
AdAG | A<F DA, | F<G A<E | D2 D z | 
A<d A<G | A<F DA, | F>G A<E | D2 D z | 
dedA | d<e d A | G>A Bd | A2 A z | 
A>d A G | A F D A, | F>G A<E | D2 D z | 

